app/img/contact/ic_tell.svg

<svg width="25" height="22" viewBox="0 0 25 22" fill="none" xmlns="http://www.w3.org/2000/svg">
    <path d="M19.4405 4.36485L19.4405 4.36484C16.0513 2.39173 12.4499 2.07402 8.70676 3.02055L8.70676 3.02055C6.72824 3.52077 4.96284 4.43672 3.57124 5.98313L3.5712 5.98317C2.2876 7.40873 1.69476 9.06585 2.10667 10.9953C2.4458 12.5823 3.42077 13.7533 4.65984 14.7527C4.92813 14.9677 5.13714 15.162 5.20618 15.4153C5.27681 15.6744 5.18817 15.9422 5.03939 16.2602C5.03934 16.2603 5.0393 16.2604 5.03926 16.2605L4.8581 16.1758L19.4405 4.36485ZM19.4405 4.36485L19.443 4.36624M19.4405 4.36485L19.443 4.36624M19.443 4.36624C20.4424 4.92938 21.3055 5.71774 21.9673 6.67269C23.5482 9.0008 23.3388 11.6881 21.4109 13.7777C19.8644 15.4533 17.9105 16.3657 15.733 16.8647C13.7012 17.3261 11.5981 17.3468 9.55801 16.9255C9.37401 16.8852 9.18398 16.883 8.99912 16.919C8.81547 16.9548 8.64083 17.0275 8.48521 17.1328C6.90506 18.1023 5.27434 18.9289 3.51024 19.4286M19.443 4.36624L3.51024 19.4286M3.51024 19.4286C3.50397 19.4299 3.4977 19.4312 3.49142 19.4325C3.61988 19.1721 3.74764 18.9147 3.87435 18.6594L3.51024 19.4286ZM12.5409 18.986L12.5631 18.9884L12.5853 18.9859C12.8776 18.9521 13.1718 18.9238 13.4663 18.8953C14.1199 18.8323 14.7752 18.769 15.4151 18.647C18.1132 18.1476 20.5627 17.0658 22.5248 14.9999C25.2009 12.1898 25.4117 8.34559 23.0226 5.31176C21.8483 3.81953 20.3397 2.78116 18.6363 2.05598C15.5005 0.71996 12.2547 0.473545 8.95589 1.20378L8.95584 1.20379C6.3179 1.78845 3.93756 2.95124 2.12187 5.10646C0.624838 6.87443 -0.0386836 8.9283 0.431361 11.2772L0.431377 11.2772C0.796905 13.1 1.78661 14.5456 3.14712 15.7136C3.26643 15.8165 3.30317 15.8818 3.31314 15.9265C3.32193 15.966 3.31845 16.029 3.24986 16.1516C3.07546 16.4614 2.90622 16.7707 2.73767 17.0786C2.46284 17.5808 2.18986 18.0795 1.8993 18.5724C1.30886 19.5674 1.6487 20.8111 2.75613 21.1354L2.75609 21.1356L2.76305 21.1373C3.11107 21.2258 3.47549 21.2205 3.82088 21.1219C5.65953 20.6066 7.35799 19.7666 9.0026 18.8262C9.22796 18.7156 9.47805 18.6704 9.72612 18.6951L9.72611 18.6951L9.7307 18.6955C10.4134 18.7475 11.0949 18.8244 11.7752 18.901C12.0307 18.9298 12.2859 18.9586 12.5409 18.986Z"
          fill="#A2A2A4" stroke="#A2A2A4" stroke-width="0.4"/>
</svg>

<svg width="25" height="22" fill="none" xmlns="http://www.w3.org/2000/svg"><path d="M19.44 4.365C16.052 2.392 12.45 2.074 8.707 3.02c-1.979.5-3.744 1.416-5.136 2.962-1.283 1.426-1.876 3.083-1.464 5.012.339 1.587 1.314 2.758 2.553 3.758.268.215.477.409.546.662.07.26-.018.527-.167.845l-.18-.084L19.44 4.365Zm0 0 .003.001m-.003-.001.003.001m0 0a7.635 7.635 0 0 1 2.524 2.307c1.581 2.328 1.372 5.015-.556 7.105-1.547 1.675-3.5 2.588-5.678 3.087a14.565 14.565 0 0 1-6.175.06 1.379 1.379 0 0 0-1.073.208c-1.58.97-3.21 1.796-4.975 2.296M19.443 4.366 3.51 19.43m0 0c-.006 0-.012.002-.019.004l.383-.774-.364.77Zm9.03-.443.023.002.022-.002c.293-.034.587-.062.881-.09.654-.064 1.31-.127 1.95-.249 2.697-.5 5.147-1.581 7.109-3.647 2.676-2.81 2.887-6.654.498-9.688-1.175-1.492-2.683-2.53-4.387-3.256C15.501.72 12.255.474 8.956 1.204c-2.638.584-5.018 1.747-6.834 3.902C.625 6.874-.038 8.928.432 11.277c.365 1.823 1.355 3.269 2.715 4.437.12.102.156.168.166.213.009.039.005.102-.063.225-.175.31-.344.619-.512.927-.275.502-.548 1-.839 1.493-.59.995-.25 2.24.857 2.563l.007.002a2.02 2.02 0 0 0 1.058-.015c1.839-.515 3.537-1.355 5.182-2.296a1.34 1.34 0 0 1 .723-.13h.005c.682.051 1.364.128 2.044.205.256.029.51.058.766.085Z" fill="#A2A2A4" stroke="#A2A2A4" stroke-width=".4"/></svg>
